X:268
T:the Ton
O:scotland
R:Reel
M:2/4
K:A
cd|\
e2a2 a2cd|c2e2 e2cB|A2A2 B2B2|cBcd c2cd|\
e2a2 a2cd|c2e2 e2cB|A2A2 B2B2|A4 A2:|
|:cd|\
e2a2 f2d2|e2a2 f2d2|e3c A2c2|BABc B2cd|\
e2a2 f2d2|e2a2 f2d2|cecA BdBG| A4 A2:|
